X:1
T:Title
%%score ( 1 2 ) ( 3 4 )
L:1/8
M:4/4
K:G
V:1 treble nm="Choir Aahs, Staff"
V:2 treble 
V:3 bass nm="Choir Aahs, Staff-1"
V:4 bass 
V:1
 [B,E]2 [B,^D]2 [B,E]2 [B,F]2 | [B,G]2 [EG]2 [^DF]2 E2 | [EG]2 [^DF]2 [B,E]2 [DF]2 | %3
w: By~Johann~Cruger * * *|||
 [EG]2 [EA]2 [^DB]4 | [DB]2 [Gc]2 [Gd]2 G2 | c2 z2 z4 | [EG]2 [EA]2 [^DB]2 E2 | [EG]2 [^DF]2 E4 |] %8
w: |||||
V:2
 x8 | x8 | x8 | x8 | x8 | GF [GB]2 [GB]2 [FA]2 | x8 | x8 |] %8
V:3
 [E,G,]2 [F,A,]2 [G,B,]2 [^D,F,]2 | z2 B,2 z4 | [E,B,]2 B,A, [G,B,]2 [F,B,]2 | B,2 z2 z4 | %4
 G,2 [E,G,]2 B,,2 [C,E][B,,D] | z2 D2 z4 | [E,B,]2 [C,A,]2 [B,,F,]2 [C,C]2 | B,2 z2 z4 |] %8
V:4
 x8 | E,2 G,,A,, [B,,B,]2 [E,G,]2 | x8 | E,D, [C,E,]2 [B,,F,]4 | x8 | %5
 [A,,C]2 G,,B,, [D,D]2 [D,D]2 | x8 | G,,A,, [B,,B,]2 [E,,E,G,]4 |] %8

